X:98
T:Steyrer Tanz in G, nr. 67
C:traditionell
R:Steirer
A:Hallstatt, Salzkammergut
B:Corpus Musicae Popularis Austriacae (COMPA), 5.Band: J.M.Schmalnauer " Tanz Musik", Verlag Boehlau, Wien 1996
S:manuscript des Johann Michael Schmalnauer um 1820
N:im der quelle in G
Z:abc transcription Simon Wascher
F:http://simonwascher.info/TradArchiv/
M:3/4
L:1/8
K:G
V:1
%violino 1mo
P:g:Ap
Bg |\
d2 BgdB | dc A2 af | d2 AfdA | gd G2 Bg |\
d2 BgdB | dc A2 af | d2 AfdB | "in D" G4 :|
V:2
%violino 2do
Dd |\
B2 DdBD | BA F2 Dc | A2 DcAD | BG B,2 Dd |\
B2 DdBD | BA F2 Dc | A2 DcAD | B4 :|
